src/assets/svg/ibrand.svg

<svg width="131" height="77" viewBox="0 0 131 77" fill="none" xmlns="http://www.w3.org/2000/svg">
<path fill-rule="evenodd" clip-rule="evenodd" d="M6.36977 22.2106L26.6317 0.762282C27.5812 -0.243593 29.1503 -0.256089 30.1156 0.737292L50.7894 21.9606C51.7547 22.9509 51.7672 24.5847 50.8177 25.5905L30.5558 47.0388C29.6062 48.0447 28.0403 48.0572 27.0719 47.0638L6.39807 25.8373C5.43277 24.8471 5.42019 23.2133 6.36977 22.2074V22.2106ZM12.0673 23.9974L28.4334 6.67571L45.1233 23.8068L28.7604 41.1285L12.0704 23.9943L12.0673 23.9974Z" fill="#141416" fill-opacity="0.7"/>
<path fill-rule="evenodd" clip-rule="evenodd" d="M29.0276 22.2106L49.2895 0.762282C50.2391 -0.243593 51.8081 -0.256089 52.7734 0.737292L73.4472 21.9606C74.4125 22.9509 74.4251 24.5847 73.4755 25.5905L53.2136 47.0388C52.264 48.0447 50.6982 48.0572 49.7297 47.0638L29.0559 25.8373C28.0906 24.8471 28.078 23.2133 29.0276 22.2074V22.2106ZM34.7251 23.9974L51.0912 6.67571L67.7812 23.8068L51.4182 41.1285L34.7283 23.9943L34.7251 23.9974Z" fill="#141416" fill-opacity="0.7"/>
<path fill-rule="evenodd" clip-rule="evenodd" d="M51.6886 22.2106L71.9505 0.762282C72.9001 -0.243593 74.4691 -0.256089 75.4344 0.737292L96.1082 21.9606C97.0735 22.9509 97.0861 24.5847 96.1365 25.5905L75.8746 47.0388C74.925 48.0447 73.3592 48.0572 72.3907 47.0638L51.7169 25.8373C50.7516 24.8471 50.7391 23.2133 51.6886 22.2074V22.2106ZM57.3861 23.9974L73.7522 6.67571L90.4422 23.8068L74.0792 41.1285L57.3893 23.9943L57.3861 23.9974Z" fill="#141416" fill-opacity="0.7"/>
<path fill-rule="evenodd" clip-rule="evenodd" d="M74.3496 22.2106L94.6115 0.762282C95.5611 -0.243593 97.1301 -0.256089 98.0954 0.737292L118.769 21.9606C119.735 22.9509 119.747 24.5847 118.798 25.5905L98.5356 47.0388C97.586 48.0447 96.0202 48.0572 95.0517 47.0638L74.3779 25.8373C73.4126 24.8471 73.4001 23.2133 74.3496 22.2074V22.2106ZM80.0471 23.9974L96.4132 6.67571L113.103 23.8068L96.7402 41.1285L80.0503 23.9943L80.0471 23.9974Z" fill="#141416" fill-opacity="0.7"/>
<path d="M0.151256 76.6118V75.5724H0.995766C1.48315 75.5724 1.83608 75.4889 2.05456 75.322C2.27304 75.1467 2.38228 74.8962 2.38228 74.5706V66.8943C2.38228 66.36 1.97473 66.0928 1.15963 66.0928H0V65.0534L4.76455 64.7905V74.5706C4.76455 74.8712 4.86959 75.1133 5.07967 75.2969C5.29815 75.4806 5.67209 75.5724 6.20148 75.5724H6.88213V76.6118H0.151256ZM1.99153 59.6437C1.99153 59.2179 2.13859 58.8548 2.4327 58.5542C2.73521 58.2537 3.10494 58.1034 3.5419 58.1034C3.99567 58.1034 4.3612 58.2537 4.63851 58.5542C4.92421 58.8548 5.06706 59.2179 5.06706 59.6437C5.06706 60.0778 4.91581 60.4451 4.6133 60.7457C4.31079 61.0379 3.94525 61.184 3.51669 61.184C3.07133 61.184 2.7058 61.0253 2.42009 60.7081C2.13439 60.3825 1.99153 60.0277 1.99153 59.6437Z" fill="#141416" fill-opacity="0.7"/>
<path d="M8.38208 59.3181V58.1785H18.0624C19.9279 58.1785 21.3775 58.5876 22.411 59.4058C23.453 60.2155 23.974 61.3008 23.974 62.6616C23.974 63.8388 23.5623 64.8155 22.7388 65.5919C21.9237 66.36 20.8103 66.8275 19.3985 66.9944C19.9783 67.0362 20.5708 67.1489 21.1758 67.3326C21.7892 67.5162 22.306 67.7208 22.7262 67.9462C24.1715 68.6975 24.8942 69.908 24.8942 71.5777C24.8942 73.381 24.1505 74.7084 22.6631 75.5599C21.8396 76.0191 20.7935 76.3321 19.5246 76.4991C18.9112 76.5742 17.991 76.6118 16.7642 76.6118H8.38208V75.4722H8.7098C9.777 75.4722 10.4703 75.3971 10.7896 75.2468C11.1173 75.0966 11.2812 74.771 11.2812 74.2701V60.5203C11.2812 60.0444 11.1677 59.7272 10.9408 59.5686C10.7139 59.4016 10.319 59.3181 9.75599 59.3181H8.38208ZM14.092 67.7583V74.0572C14.092 74.6416 14.2012 75.0214 14.4197 75.1967C14.6466 75.3721 15.1676 75.4597 15.9827 75.4597H16.4112C18.6633 75.4597 20.1254 75.1467 20.7977 74.5205C21.4783 73.886 21.8186 72.9009 21.8186 71.5652C21.8186 70.2879 21.4321 69.3236 20.659 68.6725C19.8943 68.013 18.2977 67.6832 15.8692 67.6832C15.3482 67.6832 14.7558 67.7082 14.092 67.7583ZM14.092 66.481C14.781 66.5144 15.1886 66.5311 15.3146 66.5311C15.7012 66.5311 16.4785 66.4852 17.6465 66.3934C18.8229 66.3015 19.68 65.9843 20.2178 65.4416C20.7556 64.9073 21.0245 64.06 21.0245 62.8996C21.0245 62.0397 20.8565 61.3342 20.5203 60.7832C20.1842 60.2239 19.6674 59.8357 18.97 59.6186C18.3734 59.4266 17.47 59.3306 16.26 59.3306H16.0205C15.2138 59.3306 14.6886 59.4183 14.4449 59.5936C14.2096 59.7606 14.092 60.0736 14.092 60.5328V66.481Z" fill="#141416" fill-opacity="0.7"/>
<path d="M37.4106 66.5436C37.4106 66.9861 37.2719 67.366 36.9946 67.6832C36.7173 67.9921 36.356 68.1465 35.9106 68.1465C35.4737 68.1465 35.1165 68.0171 34.8392 67.7583C34.5703 67.4912 34.4359 67.1614 34.4359 66.769C34.4359 66.2765 34.6459 65.8758 35.0661 65.5669C33.9569 65.5669 33.0956 66.2723 32.4822 67.6832C31.8687 69.0857 31.562 70.6886 31.562 72.4919V74.5706C31.562 74.9296 31.6544 75.1884 31.8393 75.347C32.0242 75.4973 32.4107 75.5724 32.9989 75.5724H33.9695V76.6118H26.9487V75.5724H27.5916C28.1798 75.5724 28.5915 75.5015 28.8268 75.3595C29.0621 75.2176 29.1797 74.8879 29.1797 74.3703V66.8943C29.1797 66.5353 29.0705 66.3141 28.852 66.2306C28.6419 66.1387 28.331 66.0928 27.9193 66.0928H26.7723V65.0534L31.562 64.7905V67.8209C31.8225 66.8692 32.2973 66.0636 32.9863 65.4041C33.6838 64.7446 34.4737 64.4148 35.356 64.4148C35.9778 64.4148 36.4736 64.611 36.8434 65.0034C37.2215 65.3874 37.4106 65.9008 37.4106 66.5436Z" fill="#141416" fill-opacity="0.7"/>
<path d="M47.0657 69.2861V67.6832C47.0489 66.2723 46.1246 65.5669 44.2927 65.5669C43.5784 65.5669 42.9944 65.6504 42.5406 65.8173C42.0953 65.9843 41.8726 66.2055 41.8726 66.481C41.8726 66.5562 41.965 66.769 42.1499 67.1197C42.3348 67.4453 42.4272 67.7375 42.4272 67.9963C42.4272 68.3636 42.3012 68.66 42.0491 68.8854C41.8054 69.1108 41.5029 69.2235 41.1415 69.2235H41.0533C40.5911 69.2235 40.234 69.0899 39.9819 68.8227C39.7298 68.5472 39.6038 68.1549 39.6038 67.6456C39.6038 66.719 40.0827 65.9509 41.0407 65.3415C41.9987 64.7237 43.2381 64.4148 44.7591 64.4148C46.3389 64.4148 47.5153 64.7195 48.2884 65.3289C49.0615 65.93 49.448 66.8776 49.448 68.1716V74.0321C49.448 74.9004 49.7925 75.3345 50.4816 75.3345C50.6412 75.3345 50.8387 75.2844 51.074 75.1842C51.3177 75.0757 51.4479 75.0214 51.4647 75.0214C51.7084 75.0214 51.8303 75.1425 51.8303 75.3846C51.8303 75.6935 51.5782 76.0191 51.074 76.3614C50.5782 76.6953 50.0572 76.8623 49.511 76.8623C48.1665 76.8623 47.4018 76.1693 47.217 74.7835C46.8724 75.3011 46.3599 75.7519 45.6792 76.1359C44.7297 76.7036 43.6835 76.9875 42.5406 76.9875C41.4567 76.9875 40.5785 76.7287 39.9063 76.2111C39.234 75.6935 38.8979 74.938 38.8979 73.9445C38.8979 72.7757 39.6122 71.7906 41.0407 70.9892C42.4776 70.1877 44.486 69.62 47.0657 69.2861ZM47.0657 70.3255C44.7044 70.6677 43.1667 71.0852 42.4524 71.5777C41.7382 72.0703 41.381 72.759 41.381 73.6439C41.381 74.22 41.5827 74.7084 41.986 75.1091C42.3978 75.5098 42.8978 75.7102 43.486 75.7102C44.4776 75.7102 45.3221 75.3762 46.0195 74.7084C46.717 74.0405 47.0657 73.2391 47.0657 72.304V70.3255Z" fill="#141416" fill-opacity="0.7"/>
<path d="M52.6748 66.0928V65.0534L57.1746 64.7905V67.0195C58.1074 65.283 59.4225 64.4148 61.1199 64.4148C62.3803 64.4148 63.3803 64.8447 64.1198 65.7046C64.8677 66.5645 65.2416 67.6373 65.2416 68.9229V74.3703C65.2416 74.7459 65.3256 75.0423 65.4937 75.2594C65.6618 75.4681 66.0147 75.5724 66.5525 75.5724H67.3592V76.6118H60.7417V75.5724H61.5358C62.0148 75.5724 62.3551 75.4889 62.5568 75.322C62.7585 75.1467 62.8593 74.8294 62.8593 74.3703V68.6099C62.8593 66.8317 62.0358 65.9426 60.3888 65.9426C59.4897 65.9426 58.7292 66.3141 58.1074 67.0571C57.4855 67.8001 57.1746 68.8019 57.1746 70.0625V74.1699C57.1746 74.6207 57.2587 74.9672 57.4267 75.2093C57.5948 75.4514 57.9645 75.5724 58.5359 75.5724H59.2922V76.6118H52.6748V75.5724H53.368C53.8806 75.5724 54.2462 75.4931 54.4646 75.3345C54.6831 75.1675 54.7924 74.8461 54.7924 74.3703V67.0946C54.7924 66.6939 54.7209 66.4268 54.5781 66.2932C54.4436 66.1596 54.1285 66.0928 53.6327 66.0928H52.6748Z" fill="#141416" fill-opacity="0.7"/>
<path d="M77.6698 76.8623V74.5831C77.0143 76.186 75.8337 76.9875 74.1279 76.9875C72.4557 76.9875 71.149 76.4156 70.2078 75.2719C69.2667 74.1198 68.7961 72.6296 68.7961 70.8013C68.7961 68.9563 69.2835 67.4327 70.2582 66.2306C71.2414 65.0201 72.5103 64.4148 74.0648 64.4148C75.7791 64.4148 76.9807 65.0827 77.6698 66.4184V59.8816C77.6698 59.5644 77.5815 59.3515 77.4051 59.243C77.2286 59.1344 76.9429 59.0802 76.548 59.0802H75.1488V58.0408L80.0521 57.7778V74.1574C80.0521 74.6583 80.1613 75.0173 80.3798 75.2343C80.6067 75.4514 80.9764 75.5599 81.489 75.5599H82.1696V76.5993L77.6698 76.8623ZM77.6698 70.7011C77.6698 69.1149 77.4093 67.8836 76.8883 67.007C76.3757 66.1304 75.6194 65.6921 74.6195 65.6921C72.4935 65.6921 71.4305 67.3743 71.4305 70.7387C71.4305 74.053 72.4851 75.7102 74.5942 75.7102C75.5942 75.7102 76.3547 75.2719 76.8757 74.3953C77.4051 73.5187 77.6698 72.2873 77.6698 70.7011Z" fill="#141416" fill-opacity="0.7"/>
<path d="M84.5393 75.3721C84.5393 74.9296 84.6948 74.5539 85.0057 74.245C85.325 73.9361 85.7115 73.7817 86.1653 73.7817C86.6107 73.7817 86.9888 73.9403 87.2997 74.2576C87.6106 74.5748 87.7661 74.9546 87.7661 75.3971C87.7661 75.8479 87.6106 76.2278 87.2997 76.5367C86.9888 76.8372 86.6107 76.9875 86.1653 76.9875C85.7283 76.9875 85.346 76.833 85.0183 76.5241C84.699 76.2069 84.5393 75.8229 84.5393 75.3721Z" fill="#141416" fill-opacity="0.7"/>
<path d="M106.181 71.9284V62.3235C106.181 61.1881 105.938 60.4117 105.45 59.9943C104.963 59.5769 104.316 59.3515 103.509 59.3181H103.232V58.1785H110.492V59.3181H110.278C109.16 59.3181 108.417 59.5936 108.047 60.1446C107.686 60.6956 107.505 61.6223 107.505 62.9246V77H106.497L94.7995 61.3342V72.2665C94.7995 73.6022 95.0516 74.4704 95.5558 74.8712C96.0683 75.2719 96.8414 75.4722 97.875 75.4722V76.6118H90.4005V75.4722H90.5265C91.6441 75.4722 92.413 75.2134 92.8332 74.6958C93.2617 74.1782 93.476 73.3601 93.476 72.2414V60.1696C93.2155 59.8441 92.9382 59.6228 92.6441 59.5059C92.35 59.3807 91.8668 59.3181 91.1946 59.3181H90.4005V58.1785H95.8079L106.181 71.9284Z" fill="#141416" fill-opacity="0.7"/>
<path d="M125.769 59.6687L126.74 57.9657H127.71L128.101 65.2037L127.004 65.2538C126.534 63.2669 125.786 61.7183 124.761 60.6079C123.744 59.4976 122.45 58.9424 120.878 58.9424C119.206 58.9424 117.874 59.6479 116.883 61.0587C115.891 62.4696 115.395 64.5818 115.395 67.3952C115.404 73.0303 117.261 75.8479 120.967 75.8479C122.345 75.8479 123.446 75.4681 124.269 74.7084C125.093 73.9403 125.504 72.9009 125.504 71.5902V70.6886C125.504 70.2044 125.37 69.8705 125.101 69.6868C124.832 69.4948 124.307 69.3988 123.525 69.3988H122.605V68.2592H131V69.3988H129.437C128.975 69.3988 128.635 69.4781 128.416 69.6367C128.206 69.7953 128.101 70.1376 128.101 70.6636V77H127.13L126.172 74.5831C124.828 76.1944 122.988 77 120.652 77C118.366 77 116.362 76.161 114.639 74.483C112.917 72.7966 112.055 70.5342 112.055 67.6957C112.055 64.7571 112.967 62.3736 114.79 60.5453C116.622 58.7087 118.656 57.7903 120.891 57.7903C122.916 57.7903 124.542 58.4165 125.769 59.6687Z" fill="#141416" fill-opacity="0.7"/>
</svg>

<svg xmlns="http://www.w3.org/2000/svg" width="131" height="77" fill="none"><path fill="#141416" fill-opacity=".7" fill-rule="evenodd" d="M6.37 22.21 26.632.763a2.4 2.4 0 0 1 3.484-.025l20.673 21.224c.966.99.978 2.624.029 3.63L30.556 47.039a2.4 2.4 0 0 1-3.484.025L6.398 25.837c-.965-.99-.978-2.624-.028-3.63zm5.697 1.787L28.433 6.676l16.69 17.13L28.76 41.13 12.07 23.994z" clip-rule="evenodd"/><path fill="#141416" fill-opacity=".7" fill-rule="evenodd" d="M29.028 22.21 49.289.763a2.4 2.4 0 0 1 3.484-.025l20.674 21.224c.965.99.978 2.624.028 3.63l-20.26 21.447a2.4 2.4 0 0 1-3.484.025L29.056 25.837c-.965-.99-.978-2.624-.028-3.63zm5.697 1.787L51.091 6.676l16.69 17.13L51.418 41.13l-16.69-17.135z" clip-rule="evenodd"/><path fill="#141416" fill-opacity=".7" fill-rule="evenodd" d="M51.689 22.21 71.95.763a2.4 2.4 0 0 1 3.483-.025l20.674 21.224c.965.99.978 2.624.028 3.63L75.876 47.039a2.4 2.4 0 0 1-3.484.025L51.717 25.837c-.965-.99-.978-2.624-.028-3.63zm5.697 1.787L73.752 6.676l16.69 17.13L74.08 41.13 57.39 23.994z" clip-rule="evenodd"/><path fill="#141416" fill-opacity=".7" fill-rule="evenodd" d="M74.35 22.21 94.612.763a2.4 2.4 0 0 1 3.483-.025l20.674 21.224c.966.99.978 2.624.029 3.63L98.536 47.039a2.4 2.4 0 0 1-3.484.025L74.378 25.837c-.965-.99-.978-2.624-.028-3.63zm5.697 1.787L96.413 6.676l16.69 17.13L96.74 41.13 80.05 23.994z" clip-rule="evenodd"/><path fill="#141416" fill-opacity=".7" d="M.151 76.612v-1.04h.845q.73 0 1.059-.25.327-.263.327-.751v-7.677q0-.801-1.222-.801H0v-1.04l4.765-.263v9.78q0 .451.315.727.327.275 1.121.275h.681v1.04zm1.84-16.968a1.5 1.5 0 0 1 .442-1.09q.453-.45 1.109-.45.681 0 1.097.45.428.45.428 1.09 0 .65-.454 1.102a1.52 1.52 0 0 1-1.096.438 1.41 1.41 0 0 1-1.097-.476q-.429-.488-.428-1.064m6.39-.326v-1.14h9.68q2.8 0 4.349 1.228 1.563 1.215 1.563 3.256 0 1.766-1.235 2.93-1.223 1.153-3.34 1.402.87.063 1.777.339.92.275 1.55.613 2.169 1.127 2.168 3.632 0 2.704-2.23 3.982-1.236.689-3.14.94-.92.111-2.76.112H8.382v-1.14h.328q1.6 0 2.08-.225.49-.225.491-.977V60.52q0-.714-.34-.951-.34-.25-1.185-.25zm5.71 8.44v6.3q0 .876.328 1.139.34.263 1.563.263h.428q3.378 0 4.387-.94 1.02-.952 1.02-2.955 0-1.916-1.159-2.892-1.147-.99-4.79-.99-.78 0-1.777.075m0-1.277q1.034.05 1.223.05.58 0 2.332-.138 1.764-.137 2.57-.951.808-.802.808-2.542 0-1.29-.505-2.117-.504-.84-1.55-1.164-.895-.288-2.71-.288h-.24q-1.209 0-1.575.263-.353.25-.353.939zm23.318.063q0 .663-.415 1.14-.417.463-1.084.463-.655 0-1.072-.389a1.34 1.34 0 0 1-.403-.989q0-.739.63-1.202-1.664 0-2.584 2.116-.92 2.105-.92 4.809v2.079q0 .538.277.776.278.225 1.16.225h.97v1.04h-7.02v-1.04h.643q.882 0 1.235-.213.353-.212.353-.989v-7.476q0-.538-.328-.663-.315-.138-.933-.138h-1.147v-1.04l4.79-.263v3.03a5.17 5.17 0 0 1 1.424-2.416q1.047-.99 2.37-.99.933 0 1.487.59.567.575.568 1.54m9.655 2.742v-1.603q-.025-2.115-2.773-2.116-1.072 0-1.752.25-.669.251-.668.664 0 .112.277.639.277.488.277.876 0 .551-.378.89a1.3 1.3 0 0 1-.907.338h-.089q-.693 0-1.071-.401-.378-.414-.378-1.177 0-1.39 1.437-2.305 1.437-.926 3.718-.926 2.37 0 3.53.914 1.16.902 1.159 2.843v5.86q0 1.302 1.034 1.303.24 0 .592-.15.366-.165.39-.164.366 0 .366.364 0 .463-.756.976-.744.501-1.563.501-2.018 0-2.294-2.078-.517.776-1.538 1.352a6 6 0 0 1-3.138.852q-1.626 0-2.635-.777-1.008-.776-1.008-2.266 0-1.754 2.143-2.956 2.155-1.202 6.025-1.703m0 1.04q-3.543.513-4.614 1.252-1.071.738-1.071 2.066 0 .864.605 1.465.618.6 1.5.601 1.487 0 2.534-1.002t1.046-2.404zm5.609-4.233v-1.04l4.5-.263v2.23q1.399-2.605 3.945-2.605 1.89 0 3 1.29 1.122 1.29 1.122 3.218v5.447q0 .563.252.89.252.312 1.058.312h.807v1.04h-6.617v-1.04h.794q.72 0 1.02-.25.304-.263.303-.952v-5.76q0-2.667-2.47-2.667-1.35 0-2.282 1.114t-.932 3.005v4.108q0 .675.252 1.04.252.362 1.109.362h.756v1.04h-6.617v-1.04h.693q.769 0 1.097-.237.327-.25.327-.965v-7.275q0-.601-.214-.802-.202-.2-.945-.2zM77.67 76.862v-2.279q-.984 2.404-3.542 2.404-2.508 0-3.92-1.715-1.412-1.728-1.412-4.47 0-2.77 1.462-4.571 1.475-1.815 3.807-1.816 2.571 0 3.605 2.003v-6.536q0-.476-.265-.639-.264-.163-.857-.163h-1.4v-1.04l4.904-.262v16.38q0 .751.328 1.076.34.326 1.109.326h.68v1.04zm0-6.16q0-2.38-.782-3.695-.769-1.315-2.269-1.315-3.189 0-3.189 5.047 0 4.971 3.164 4.971 1.5 0 2.282-1.315.794-1.315.794-3.694m6.87 4.671q0-.663.466-1.127.479-.463 1.16-.463.667 0 1.134.476t.466 1.14q0 .675-.466 1.139-.467.45-1.135.45a1.62 1.62 0 0 1-1.147-.463 1.56 1.56 0 0 1-.479-1.152m21.642-3.444v-9.604q0-1.703-.731-2.33-.73-.625-1.941-.676h-.277v-1.14h7.26v1.14h-.214q-1.677 0-2.231.827-.542.825-.542 2.78V77h-1.008L94.799 61.334v10.932q0 2.004.757 2.605.768.6 2.319.601v1.14H90.4v-1.14h.126q1.677 0 2.307-.776.643-.777.643-2.455V60.17q-.39-.489-.832-.664-.44-.188-1.45-.188H90.4v-1.14h5.408zm19.588-12.259.971-1.703h.97l.391 7.238-1.097.05q-.705-2.98-2.243-4.646-1.525-1.666-3.883-1.666-2.508 0-3.995 2.117t-1.488 6.336q.013 8.453 5.572 8.453 2.067 0 3.302-1.14 1.235-1.152 1.235-3.118v-.901q0-.727-.403-1.002-.403-.288-1.576-.288h-.92v-1.14H131v1.14h-1.563q-.693 0-1.021.238-.315.237-.315 1.027V77h-.971l-.958-2.417Q124.156 77 120.652 77q-3.429 0-6.013-2.517-2.584-2.53-2.584-6.787 0-4.408 2.735-7.15 2.748-2.756 6.101-2.756 3.037 0 4.878 1.879"/></svg>
